X:973
T:Reel 973
M:4/4
K:Gmaj
L:1/8
 (3dEF |G2B2 B>G (3BAB |c2B2 B2B2|G>B (3BAB d>G (3BAG |A>G (3FGA B>G (3AFD |G2BA GBdg| (3efe d>B  (3BcB A2|G2BG A2BA|GEE2 G2|d2|B>B (3BBB d2BG|B>c (3BAB d2B2| (3cBc B>A  (3FAA |BAB|GFED E2FD| (3BcB B>B  (3BBB d2|DGFG ABc2Bc| (3efg fg Bgfage| (3ded ec BA|
